craft2/public/assets/svgicons/branches/skr-01.svg

<svg xmlns="http://www.w3.org/2000/svg" width="37.667" height="45.291" viewBox="0 0 37.667 45.291"><g stroke="#3B3735" stroke-width="2" stroke-linecap="round" stroke-linejoin="round" stroke-miterlimit="10" fill="none"><path d="M35.667 44.291h-33.667c-.552 0-1-.448-1-1v-18.283c0-.552.448-1 1-1h33.667c.552 0 1 .448 1 1v18.283c0 .552-.448 1-1 1z"/><path d="M27.952 44.291l-5.226-31.566c-.097-.926.509-1.771 1.415-1.99 1.188-.287 2.716-1.056 3.419-3.078 1.044-3.006-.694-6.657-8.786-6.657s-9.83 3.651-8.786 6.656c.702 2.022 2.231 2.791 3.419 3.078.905.219 1.511 1.064 1.415 1.99l-5.108 31.567"/><path d="M9.714 44.291h-7.77c-.521 0-.944-.423-.944-.945v-2.292h7.061c.42 0 .789.277.907.68l.746 2.557z"/><path d="M27.952 44.291h7.77c.522 0 .945-.423.945-.945v-2.292h-7.061c-.42 0-.789.277-.907.68l-.747 2.557z"/><path d="M23.944 44.291h-10.224l.746-2.557c.118-.403.487-.68.907-.68h6.918c.42 0 .789.277.907.68l.746 2.557z"/></g></svg>

<?xml version="1.0" encoding="utf-8"?>
<!-- Generator: Adobe Illustrator 17.0.0, SVG Export Plug-In . SVG Version: 6.00 Build 0)  -->
<!DOCTYPE svg PUBLIC "-//W3C//DTD SVG 1.1//EN" "http://www.w3.org/Graphics/SVG/1.1/DTD/svg11.dtd">
<svg version="1.1" id="Layer_1" xmlns="http://www.w3.org/2000/svg" xmlns:xlink="http://www.w3.org/1999/xlink" x="0px" y="0px"
	 width="37.667px" height="45.291px" viewBox="0 0 37.667 45.291" enable-background="new 0 0 37.667 45.291" xml:space="preserve">
<g>
	<path fill="none" stroke="#3B3735" stroke-width="2" stroke-linecap="round" stroke-linejoin="round" stroke-miterlimit="10" d="
		M35.667,44.291H2c-0.552,0-1-0.448-1-1V25.008c0-0.552,0.448-1,1-1h33.667c0.552,0,1,0.448,1,1v18.283
		C36.667,43.843,36.219,44.291,35.667,44.291z"/>
	<path fill="none" stroke="#3B3735" stroke-width="2" stroke-linecap="round" stroke-linejoin="round" stroke-miterlimit="10" d="
		M27.952,44.291l-5.226-31.566c-0.097-0.926,0.509-1.771,1.415-1.99c1.188-0.287,2.716-1.056,3.419-3.078
		C28.604,4.651,26.866,1,18.774,1s-9.83,3.651-8.786,6.656c0.702,2.022,2.231,2.791,3.419,3.078c0.905,0.219,1.511,1.064,1.415,1.99
		L9.714,44.291"/>
	<path fill="none" stroke="#3B3735" stroke-width="2" stroke-linecap="round" stroke-linejoin="round" stroke-miterlimit="10" d="
		M9.714,44.291h-7.77C1.423,44.291,1,43.868,1,43.346v-2.292h7.061c0.42,0,0.789,0.277,0.907,0.68L9.714,44.291z"/>
	<path fill="none" stroke="#3B3735" stroke-width="2" stroke-linecap="round" stroke-linejoin="round" stroke-miterlimit="10" d="
		M27.952,44.291h7.77c0.522,0,0.945-0.423,0.945-0.945v-2.292h-7.061c-0.42,0-0.789,0.277-0.907,0.68L27.952,44.291z"/>
	<path fill="none" stroke="#3B3735" stroke-width="2" stroke-linecap="round" stroke-linejoin="round" stroke-miterlimit="10" d="
		M23.944,44.291H13.72l0.746-2.557c0.118-0.403,0.487-0.68,0.907-0.68h6.918c0.42,0,0.789,0.277,0.907,0.68L23.944,44.291z"/>
</g>
</svg>
